X: 7
T:Jaybird Died of the Whooping Cough - G
M:4/4
L:1/8
K:G
ef|:"G"g2ga g2d2|eged Bdef|gfga gedd|e2 g4 ef|
|:"G"B4 B4|ABAG E2(D2|D)EG2 B2GB|A2 G4 GA|

